img/rating-logo2.svg

<svg fill="none" height="22" viewBox="0 0 96 22" width="96" xmlns="http://www.w3.org/2000/svg"><path d="m25.7611 5.26562h9.5688v1.75038h-3.7676v9.8672h-2.0651v-9.8672h-3.7518zm9.1589 3.20645h1.7656v1.62643h.0315c.0631-.23232.1734-.44918.3311-.66604.1576-.21686.3468-.41824.5832-.58863.2207-.18588.473-.32529.7567-.43372.268-.10843.5517-.17039.8355-.17039.2207 0 .3783.01549.4572.01549.0788.01549.1734.03098.2522.03098v1.78141c-.1261-.031-.268-.0465-.4099-.062s-.268-.03099-.4099-.03099c-.3152 0-.6147.06199-.8985.18589-.2837.1239-.5202.3098-.7409.5421-.2049.2479-.3783.5422-.5045.8985-.1261.3562-.1891.7745-.1891 1.2392v3.9964h-1.8917zm13.6832 8.41113h-1.8602v-1.1773h-.0315c-.2365.4338-.5833.7591-1.0404 1.0224-.4572.2633-.9301.3872-1.403.3872-1.1193 0-1.939-.2633-2.4434-.8209-.5045-.5422-.7567-1.3787-.7567-2.4784v-5.34413h1.8917v5.15823c0 .7435.1418 1.2702.4414 1.5645.2837.3098.6936.4647 1.2138.4647.3941 0 .7251-.062.9931-.1859s.4887-.2788.6464-.4802c.1734-.2014.2837-.4492.3625-.728.0788-.2789.1104-.5887.1104-.914v-4.87933h1.8917v8.41113zm3.2158-2.6953c.0631.5422.268.9139.6306 1.1463.3626.2168.804.3253 1.3084.3253.1734 0 .3784-.0155.5991-.0465s.4414-.0774.6305-.1549c.205-.0774.3626-.1859.4887-.3408s.1892-.3408.1734-.5731c-.0158-.2324-.0946-.4337-.268-.5886s-.3783-.2634-.6305-.3718c-.2523-.0929-.5518-.1704-.8828-.2324-.3311-.0619-.6621-.1394-1.0089-.2168-.3468-.0775-.6936-.1704-1.0247-.2788-.331-.1085-.6148-.2479-.8828-.4492-.2522-.1859-.4729-.4183-.6148-.7126-.1576-.2943-.2364-.6351-.2364-1.0688 0-.4647.1103-.83647.3468-1.14627.2207-.3098.5202-.55764.867-.74353.3468-.18588.7409-.32529 1.1665-.40274.4257-.07745.8355-.10843 1.2139-.10843.4414 0 .867.04647 1.2611.13941s.7724.23235 1.0877.44922c.331.20137.599.48019.804.80548.2207.32529.3468.72806.4098 1.19276h-1.9705c-.0945-.4492-.2995-.7435-.6148-.89845-.331-.1549-.6936-.23235-1.1192-.23235-.1261 0-.2995.01549-.4729.03098-.1892.03098-.3468.06196-.5202.12392-.1577.06196-.2996.1549-.4099.2633-.1104.1085-.1734.2634-.1734.4492 0 .2324.0788.4028.2365.5422.1576.1394.3625.2478.6305.3563.2522.0929.5518.1704.8828.2323.331.062.6779.1394 1.0247.2169.3468.0774.6778.1704 1.0089.2788.331.1084.6305.2478.8827.4492.2523.1859.473.4183.6306.6971s.2365.6351.2365 1.0378c0 .4957-.1104.9139-.3468 1.2702-.2365.3408-.536.6351-.8986.852-.3626.2168-.7882.3717-1.2296.4801-.4571.093-.8985.1549-1.3399.1549-.536 0-1.0405-.0619-1.4976-.1858-.4572-.124-.867-.3098-1.1981-.5422-.331-.2478-.599-.5421-.7882-.9139-.1892-.3563-.2995-.79-.3153-1.3012h1.9075v.0155zm6.2268-5.71583h1.4346v-2.54037h1.8916v2.52488h1.7026v1.37862h-1.7026v4.4921c0 .2014.0158.3563.0316.5112.0157.1394.063.2633.1103.3563.0631.0929.1577.1704.268.2168.1261.0465.2838.0775.5045.0775.1261 0 .2679 0 .3941-.0155.1261-.0155.2679-.031.3941-.062v1.4406c-.205.031-.4099.0465-.6148.062-.205.031-.3941.031-.6148.031-.5045 0-.8986-.0465-1.1981-.1395-.2995-.0929-.536-.2323-.7094-.4027-.1734-.1859-.2837-.4027-.3468-.6661-.063-.2633-.0946-.5886-.1103-.9294v-4.95681h-1.4346v-1.4096zm6.3529 0h1.7814v1.14627h.0315c.268-.49569.6306-.83647 1.1035-1.05333s.9774-.32529 1.5449-.32529c.6778 0 1.2611.10843 1.7655.35627.5045.23236.9143.54216 1.2454.96039.331.40274.5833.88292.7409 1.42512.1576.5421.2522 1.1307.2522 1.7349 0 .5731-.0788 1.1152-.2207 1.6419-.1576.5267-.3783 1.0069-.6778 1.4096s-.6779.728-1.1508.9759c-.4729.2478-1.0089.3717-1.6395.3717-.268 0-.5517-.0309-.8197-.0774s-.536-.1239-.7882-.2324c-.2522-.1084-.4887-.2478-.6936-.4182-.2207-.1704-.3941-.3718-.536-.5886h-.0315v4.1978h-1.8917v-11.52463zm6.6052 4.21333c0-.3718-.0473-.7435-.1577-1.0998-.0946-.3563-.2522-.6661-.4571-.9449-.205-.2788-.4572-.4957-.7409-.66609-.2996-.17039-.6464-.24784-1.0247-.24784-.7882 0-1.3872.26333-1.7971.80553-.3941.5421-.599 1.2701-.599 2.1686 0 .4337.0473.8209.1576 1.1772.1104.3563.2522.6661.4729.9294.205.2633.4572.4647.7567.6196s.6306.2324 1.0247.2324c.4414 0 .7882-.093 1.0877-.2634.2995-.1703.536-.4027.7409-.666.1892-.2789.331-.5887.4099-.9449.0788-.3718.1261-.7281.1261-1.0998zm3.3262-7.41978h1.8917v1.75038h-1.8917zm0 3.20645h1.8917v8.41113h-1.8917zm3.5784-3.20645h1.8917v11.61758h-1.8917zm7.6613 11.84988c-.6778 0-1.2926-.1084-1.8286-.3407-.536-.2324-.9774-.5267-1.3557-.914-.3626-.3872-.6463-.8674-.8355-1.4096-.1892-.5421-.2995-1.1462-.2995-1.7813s.0946-1.2237.2995-1.7659c.1892-.5421.4729-1.00684.8355-1.40958.3626-.38725.8197-.69705 1.3557-.91392.536-.21686 1.1508-.34078 1.8286-.34078.6779 0 1.2927.10843 1.8286.34078.536.21687.9774.52667 1.3557.91392.3626.38725.6464.86748.8355 1.40958.1892.5422.2996 1.1308.2996 1.7659 0 .6506-.0946 1.2392-.2996 1.7813-.2049.5422-.4729 1.0069-.8355 1.4096-.3625.3873-.8197.6971-1.3557.914-.5359.2168-1.135.3407-1.8286.3407zm0-1.4715c.4099 0 .7882-.093 1.0877-.2633.3153-.1704.5518-.4028.7567-.6816s.3468-.6041.4414-.9449c.0946-.3563.1419-.7126.1419-1.0843 0-.3563-.0473-.7126-.1419-1.0688-.0946-.3563-.2365-.6661-.4414-.9449s-.4571-.4957-.7567-.6661c-.3152-.17039-.6778-.26333-1.0877-.26333-.4098 0-.7882.09294-1.0877.26333-.3153.1704-.5517.4027-.7567.6661-.2049.2788-.3468.5886-.4414.9449-.0946.3562-.1418.7125-.1418 1.0688 0 .3717.0472.728.1418 1.0843s.2365.6661.4414.9449c.205.2788.4572.5112.7567.6816.3153.1858.6779.2633 1.0877.2633zm4.8869-7.17193h1.4345v-2.54037h1.8917v2.52488h1.7025v1.37862h-1.7025v4.4921c0 .2014.0157.3563.0315.5112.0158.1394.063.2633.1103.3563.0631.0929.1577.1704.268.2168.1261.0465.2838.0775.5045.0775.1261 0 .268 0 .3941-.0155s.268-.031.3941-.062v1.4406c-.2049.031-.4099.0465-.6148.062-.2049.031-.3941.031-.6148.031-.5045 0-.8986-.0465-1.1981-.1395-.2995-.0929-.536-.2323-.7094-.4027-.1734-.1859-.2837-.4027-.3468-.6661-.063-.2633-.0945-.5886-.1103-.9294v-4.95681h-1.4345v-1.4096z" fill="#000"/><path d="m23.5545 8.08581h-8.6544l-2.6642-8.08581-2.67985 8.08581-8.654439-.01549 6.999219 5.00328-2.67988 8.0858 6.99925-5.0033 6.9992 5.0033-2.6641-8.0858z" fill="#00b67a"/><path d="m17.1537 14.9015-.599-1.8278-4.3193 3.0825z" fill="#005128"/></svg>

<svg width="96" height="22" viewBox="0 0 96 22" fill="none" xmlns="http://www.w3.org/2000/svg">
<path d="M25.7611 5.26562H35.3299V7.016H31.5623V16.8832H29.4972V7.016H25.7454L25.7611 5.26562ZM34.92 8.47207H36.6856V10.0985H36.7171C36.7802 9.86618 36.8905 9.64932 37.0482 9.43246C37.2058 9.2156 37.395 9.01422 37.6314 8.84383C37.8521 8.65795 38.1044 8.51854 38.3881 8.41011C38.6561 8.30168 38.9398 8.23972 39.2236 8.23972C39.4443 8.23972 39.6019 8.25521 39.6808 8.25521C39.7596 8.2707 39.8542 8.28619 39.933 8.28619V10.0676C39.8069 10.0366 39.665 10.0211 39.5231 10.0056C39.3812 9.9901 39.2551 9.97461 39.1132 9.97461C38.798 9.97461 38.4985 10.0366 38.2147 10.1605C37.931 10.2844 37.6945 10.4703 37.4738 10.7026C37.2689 10.9505 37.0955 11.2448 36.9693 11.6011C36.8432 11.9573 36.7802 12.3756 36.7802 12.8403V16.8367H34.8885L34.92 8.47207ZM48.6032 16.8832H46.743V15.7059H46.7115C46.475 16.1397 46.1282 16.465 45.6711 16.7283C45.2139 16.9916 44.741 17.1155 44.2681 17.1155C43.1488 17.1155 42.3291 16.8522 41.8247 16.2946C41.3202 15.7524 41.068 14.9159 41.068 13.8162V8.47207H42.9597V13.6303C42.9597 14.3738 43.1015 14.9005 43.4011 15.1948C43.6848 15.5046 44.0947 15.6595 44.6149 15.6595C45.009 15.6595 45.34 15.5975 45.608 15.4736C45.876 15.3497 46.0967 15.1948 46.2544 14.9934C46.4278 14.792 46.5381 14.5442 46.6169 14.2654C46.6957 13.9865 46.7273 13.6767 46.7273 13.3514V8.47207H48.619V16.8832H48.6032ZM51.819 14.1879C51.8821 14.7301 52.087 15.1018 52.4496 15.3342C52.8122 15.551 53.2536 15.6595 53.758 15.6595C53.9314 15.6595 54.1364 15.644 54.3571 15.613C54.5778 15.582 54.7985 15.5356 54.9876 15.4581C55.1926 15.3807 55.3502 15.2722 55.4763 15.1173C55.6024 14.9624 55.6655 14.7765 55.6497 14.5442C55.6339 14.3118 55.5551 14.1105 55.3817 13.9556C55.2083 13.8007 55.0034 13.6922 54.7512 13.5838C54.4989 13.4909 54.1994 13.4134 53.8684 13.3514C53.5373 13.2895 53.2063 13.212 52.8595 13.1346C52.5127 13.0571 52.1659 12.9642 51.8348 12.8558C51.5038 12.7473 51.22 12.6079 50.952 12.4066C50.6998 12.2207 50.4791 11.9883 50.3372 11.694C50.1796 11.3997 50.1008 11.0589 50.1008 10.6252C50.1008 10.1605 50.2111 9.78873 50.4476 9.47893C50.6683 9.16913 50.9678 8.92129 51.3146 8.7354C51.6614 8.54952 52.0555 8.41011 52.4811 8.33266C52.9068 8.25521 53.3166 8.22423 53.695 8.22423C54.1364 8.22423 54.562 8.2707 54.9561 8.36364C55.3502 8.45658 55.7285 8.59599 56.0438 8.81286C56.3748 9.01423 56.6428 9.29305 56.8478 9.61834C57.0685 9.94363 57.1946 10.3464 57.2576 10.8111H55.2871C55.1926 10.3619 54.9876 10.0676 54.6723 9.91265C54.3413 9.75775 53.9787 9.6803 53.5531 9.6803C53.427 9.6803 53.2536 9.69579 53.0802 9.71128C52.891 9.74226 52.7334 9.77324 52.56 9.8352C52.4023 9.89716 52.2604 9.9901 52.1501 10.0985C52.0397 10.207 51.9767 10.3619 51.9767 10.5477C51.9767 10.7801 52.0555 10.9505 52.2132 11.0899C52.3708 11.2293 52.5757 11.3377 52.8437 11.4462C53.0959 11.5391 53.3955 11.6166 53.7265 11.6785C54.0575 11.7405 54.4044 11.8179 54.7512 11.8954C55.098 11.9728 55.429 12.0658 55.7601 12.1742C56.0911 12.2826 56.3906 12.422 56.6428 12.6234C56.8951 12.8093 57.1158 13.0417 57.2734 13.3205C57.431 13.5993 57.5099 13.9556 57.5099 14.3583C57.5099 14.854 57.3995 15.2722 57.1631 15.6285C56.9266 15.9693 56.6271 16.2636 56.2645 16.4805C55.9019 16.6973 55.4763 16.8522 55.0349 16.9606C54.5778 17.0536 54.1364 17.1155 53.695 17.1155C53.159 17.1155 52.6545 17.0536 52.1974 16.9297C51.7402 16.8057 51.3304 16.6199 50.9993 16.3875C50.6683 16.1397 50.4003 15.8454 50.2111 15.4736C50.0219 15.1173 49.9116 14.6836 49.8958 14.1724H51.8033V14.1879H51.819ZM58.0458 8.47207H59.4804V5.9317H61.372V8.45658H63.0746V9.8352H61.372V14.3273C61.372 14.5287 61.3878 14.6836 61.4036 14.8385C61.4193 14.9779 61.4666 15.1018 61.5139 15.1948C61.577 15.2877 61.6716 15.3652 61.7819 15.4116C61.908 15.4581 62.0657 15.4891 62.2864 15.4891C62.4125 15.4891 62.5543 15.4891 62.6805 15.4736C62.8066 15.4581 62.9484 15.4426 63.0746 15.4116V16.8522C62.8696 16.8832 62.6647 16.8987 62.4598 16.9142C62.2548 16.9452 62.0657 16.9452 61.845 16.9452C61.3405 16.9452 60.9464 16.8987 60.6469 16.8057C60.3474 16.7128 60.1109 16.5734 59.9375 16.403C59.7641 16.2171 59.6538 16.0003 59.5907 15.7369C59.5277 15.4736 59.4961 15.1483 59.4804 14.8075V9.85069H58.0458V8.44109V8.47207ZM64.3987 8.47207H66.1801V9.61834H66.2116C66.4796 9.12265 66.8422 8.78187 67.3151 8.56501C67.788 8.34815 68.2925 8.23972 68.86 8.23972C69.5378 8.23972 70.1211 8.34815 70.6255 8.59599C71.13 8.82835 71.5398 9.13815 71.8709 9.55638C72.2019 9.95912 72.4542 10.4393 72.6118 10.9815C72.7694 11.5236 72.864 12.1122 72.864 12.7164C72.864 13.2895 72.7852 13.8316 72.6433 14.3583C72.4857 14.885 72.265 15.3652 71.9655 15.7679C71.666 16.1706 71.2876 16.4959 70.8147 16.7438C70.3418 16.9916 69.8058 17.1155 69.1752 17.1155C68.9072 17.1155 68.6235 17.0846 68.3555 17.0381C68.0875 16.9916 67.8195 16.9142 67.5673 16.8057C67.3151 16.6973 67.0786 16.5579 66.8737 16.3875C66.653 16.2171 66.4796 16.0157 66.3377 15.7989H66.3062V19.9967H64.4145V8.47207H64.3987ZM71.0039 12.6854C71.0039 12.3136 70.9566 11.9419 70.8462 11.5856C70.7516 11.2293 70.594 10.9195 70.3891 10.6407C70.1841 10.3619 69.9319 10.145 69.6482 9.97461C69.3486 9.80422 69.0018 9.72677 68.6235 9.72677C67.8353 9.72677 67.2363 9.9901 66.8264 10.5323C66.4323 11.0744 66.2274 11.8024 66.2274 12.7009C66.2274 13.1346 66.2747 13.5218 66.385 13.8781C66.4954 14.2344 66.6372 14.5442 66.8579 14.8075C67.0629 15.0708 67.3151 15.2722 67.6146 15.4271C67.9141 15.582 68.2452 15.6595 68.6393 15.6595C69.0807 15.6595 69.4275 15.5665 69.727 15.3961C70.0265 15.2258 70.263 14.9934 70.4679 14.7301C70.6571 14.4512 70.7989 14.1414 70.8778 13.7852C70.9566 13.4134 71.0039 13.0571 71.0039 12.6854ZM74.3301 5.26562H76.2218V7.016H74.3301V5.26562ZM74.3301 8.47207H76.2218V16.8832H74.3301V8.47207ZM77.9085 5.26562H79.8002V16.8832H77.9085V5.26562ZM85.5698 17.1155C84.892 17.1155 84.2772 17.0071 83.7412 16.7748C83.2052 16.5424 82.7638 16.2481 82.3855 15.8608C82.0229 15.4736 81.7392 14.9934 81.55 14.4512C81.3608 13.9091 81.2505 13.305 81.2505 12.6699C81.2505 12.0348 81.3451 11.4462 81.55 10.904C81.7392 10.3619 82.0229 9.89716 82.3855 9.49442C82.7481 9.10717 83.2052 8.79737 83.7412 8.5805C84.2772 8.36364 84.892 8.23972 85.5698 8.23972C86.2477 8.23972 86.8625 8.34815 87.3984 8.5805C87.9344 8.79737 88.3758 9.10717 88.7541 9.49442C89.1167 9.88167 89.4005 10.3619 89.5896 10.904C89.7788 11.4462 89.8892 12.0348 89.8892 12.6699C89.8892 13.3205 89.7946 13.9091 89.5896 14.4512C89.3847 14.9934 89.1167 15.4581 88.7541 15.8608C88.3916 16.2481 87.9344 16.5579 87.3984 16.7748C86.8625 16.9916 86.2634 17.1155 85.5698 17.1155ZM85.5698 15.644C85.9797 15.644 86.358 15.551 86.6575 15.3807C86.9728 15.2103 87.2093 14.9779 87.4142 14.6991C87.6191 14.4203 87.761 14.095 87.8556 13.7542C87.9502 13.3979 87.9975 13.0416 87.9975 12.6699C87.9975 12.3136 87.9502 11.9573 87.8556 11.6011C87.761 11.2448 87.6191 10.935 87.4142 10.6562C87.2093 10.3774 86.9571 10.1605 86.6575 9.9901C86.3423 9.81971 85.9797 9.72677 85.5698 9.72677C85.16 9.72677 84.7816 9.81971 84.4821 9.9901C84.1668 10.1605 83.9304 10.3928 83.7254 10.6562C83.5205 10.935 83.3786 11.2448 83.284 11.6011C83.1894 11.9573 83.1422 12.3136 83.1422 12.6699C83.1422 13.0416 83.1894 13.3979 83.284 13.7542C83.3786 14.1105 83.5205 14.4203 83.7254 14.6991C83.9304 14.9779 84.1826 15.2103 84.4821 15.3807C84.7974 15.5665 85.16 15.644 85.5698 15.644ZM90.4567 8.47207H91.8912V5.9317H93.7829V8.45658H95.4854V9.8352H93.7829V14.3273C93.7829 14.5287 93.7986 14.6836 93.8144 14.8385C93.8302 14.9779 93.8774 15.1018 93.9247 15.1948C93.9878 15.2877 94.0824 15.3652 94.1927 15.4116C94.3188 15.4581 94.4765 15.4891 94.6972 15.4891C94.8233 15.4891 94.9652 15.4891 95.0913 15.4736C95.2174 15.4581 95.3593 15.4426 95.4854 15.4116V16.8522C95.2805 16.8832 95.0755 16.8987 94.8706 16.9142C94.6657 16.9452 94.4765 16.9452 94.2558 16.9452C93.7513 16.9452 93.3572 16.8987 93.0577 16.8057C92.7582 16.7128 92.5217 16.5734 92.3483 16.403C92.1749 16.2171 92.0646 16.0003 92.0015 15.7369C91.9385 15.4736 91.907 15.1483 91.8912 14.8075V9.85069H90.4567V8.44109V8.47207Z" fill="black"/>
<path d="M23.5545 8.08581H14.9001L12.2359 0L9.55605 8.08581L0.901611 8.07032L7.90083 13.0736L5.22095 21.1594L12.2202 16.1561L19.2194 21.1594L16.5553 13.0736L23.5545 8.08581Z" fill="#00B67A"/>
<path d="M17.1537 14.9015L16.5547 13.0737L12.2354 16.1562L17.1537 14.9015Z" fill="#005128"/>
</svg>
